!!!COM: Palestrina, Giovanni Perluigi da
!!!OPR: Missa In duplicibus minoribus (II)
!!!OMD: Credo
!!!OTL: Qui cum Patre
**kern	**kern	**kern	**kern	**kern
*Ibass	*Itenor	*Itenor	*Icalto	*Icant
!Bassus	!Tenor 2	!Tenor 1	!Altus	!Cantus
*clefF4	*clefGv2	*clefGv2	*clefG2	*clefG2
*k[]	*k[]	*k[]	*k[]	*k[]
*E:phr	*E:phr	*E:phr	*E:phr	*E:phr
*M4/2	*M4/2	*M4/2	*M4/2	*M4/2
=120	=120	=120	=120	=120
0r	0r	0r	1e	1r
.	.	.	1d	1a
=121	=121	=121	=121	=121
0r	0r	0r	1e	1g
.	.	.	2f	1a
.	.	.	[2d	.
=122	=122	=122	=122	=122
0r	0r	0r	2d]	2b
.	.	.	1e	1g
.	.	.	[2f	[2a
=123	=123	=123	=123	=123
0r	0r	0r	4f]	2a]
.	.	.	4e	.
.	.	.	4d	2.b
.	.	.	4c	.
.	.	.	2d	.
.	.	.	.	4a
.	.	.	2c	[2a
=124	=124	=124	=124	=124
1r	1r	0r	1B	2a]
.	.	.	.	2g#
2r	2r	.	1A	2a
2A	2c	.	.	2a
=125	=125	=125	=125	=125
2E	2B	1r	2r	2g
1A	4A	.	2e	1cc
.	4B	.	.	.
.	4c	1e	2A	.
.	4A	.	.	.
2G	2B	.	[2e	2b
=126	=126	=126	=126	=126
1F	2c	1A	2e]	1.a
.	2d	.	2d	.
1E	1e	1r	2c	.
.	.	.	2B	2g
=127	=127	=127	=127	=127
1D	1A	2r	2.d	1f
.	.	1A	.	.
.	.	.	4c	.
1E	2r	.	1B	[1e
.	2B	2G#	.	.
=128	=128	=128	=128	=128
2r	2c	2A	2r	1e]
2E	2B	4G	2e	.
.	.	4B	.	.
2A	2A	2c	2f	1r
2G	2E	2B	2e	.
=129	=129	=129	=129	=129
2F	4A	2A	2d	0r
.	4B	.	.	.
2E	1c	2G	2c	.
2F	.	2A	1d	.
2G	[2B	2B	.	.
=130	=130	=130	=130	=130
2.C	4B]	1c	1.e	1r
.	4A	.	.	.
.	1A	.	.	.
4D	.	.	.	.
1E	.	2r	.	1b
.	2G#	2B	2e	.
=131	=131	=131	=131	=131
0r	0r	2.e	2.g	2cc
.	.	.	.	2b
.	.	4d	4f	.
.	.	2c	2e	2a
.	.	2B	2d	2g
=132	=132	=132	=132	=132
1r	1r	2c	2e	1a
.	.	2d	2f#	.
2r	2r	1G	2g	1b
[2E	2B	.	[2G	.
=133	=133	=133	=133	=133
2E]	2c	0r	2G]	0r
2F	2.d	.	2A	.
2G	.	.	2B	.
.	4B	.	.	.
2E	[2e	.	2G	.
=134	=134	=134	=134	=134
0A	4e]	0r	2.c	2r
.	4d	.	.	.
.	4c	.	.	1e
.	4B	.	4d	.
.	2c	.	2e	.
.	2A	.	2c	2f
=135	=135	=135	=135	=135
2G	2B	0r	2d	2g
2A	1e	.	1c	2e
1F	.	.	.	1a
.	2d	.	4B	.
.	.	.	4A	.
=136	=136	=136	=136	=136
2E	1e	2r	2B	2g#
2AA	.	1A	2c#	2a
1D	1r	.	1d	1f
.	.	2B	.	.
=137	=137	=137	=137	=137
1A	0r	2c	2r	2e
.	.	2A	2e	2.a
1D	.	1d	2f	.
.	.	.	.	4g
.	.	.	[2a	2f
=138	=138	=138	=138	=138
0r	1r	2c	4a]	2e
.	.	.	4g	.
.	.	2d	4f	1a
.	.	.	4e	.
.	2r	1B	2d	.
.	[2E	.	[2e	[2g
=139	=139	=139	=139	=139
1r	2E]	2B	2e]	2g]
.	2F	2A	2.d	4f
.	.	.	.	4e
2r	2G	2B	.	2d
.	.	.	4B	.
[2C	2E	[2c	[2e	2g
=140	=140	=140	=140	=140
2C]	1A	2c]	2e]	2.e
2D	.	2A	4d	.
.	.	.	4c	4f
2E	2G	1e	2B	2g
2C	2A	.	2c	[2e
=141	=141	=141	=141	=141
1D	0F	2r	1A	2e]
.	.	1A	.	4d
.	.	.	.	4c
1D	.	.	2r	1d
.	.	2A	[2A	.
=142	=142	=142	=142	=142
1AA	[0E	2.c	2A]	[0e
.	.	.	2A	.
.	.	4B	.	.
1AA	.	1A	1c	.
=143	=143	=143	=143	=143
[0E	1E_	[0G#	[0B	1e_
.	1E_	.	.	1e_
=144	=144	=144	=144	=144
0E]	0E]	0G#]	0B]	0e]
*-	*-	*-	*-	*-
!!!CDT: 1525/^1526/-1594/2/2
!!!OCY: Italia
!!!AGN: Mass (Paraphrase)
!!!AST: renaissance, vocal
!!!ASW: Gregorian Mass
!!!PWK: Masses, Book Mantuan I
!!!RNB: Cadence finals: A
!!!YOR: Le Opere Complete, v. 18, p. 1
!!!YOO: Rome, Italy: Fratelli Scalera
!!!END: 1992//
!!!EED: John Miller
!!!YEC: Copyright 2000, John Miller
!!!YEN: United States of America
!!!YEM: Rights to all derivative electronic formats reserved.
!!!YEM: Refer to licensing agreement for further details.
!!!YEM: This file must be accompanied by the licensing agreement.
!!!YEM: A copy of the licensing agreement may be found at http://www.music-cog.ohio-state.edu/HumdrumDatabases/Palestrina/license.txt
!!!EMD: converted to Humdrum by Bret Aarden
